X: 125
T: No_51_War_Song_of_Odjîb'we's_Childhood.krn
%%abc-version 2.0
%%abcx-abcm2ps-target-version 5.9.1 (29 Sep 2008)
%%abc-creator hum2abc beta
%%abcx-conversion-date 2020/08/10 18:54:57
%%gracespace 0 6 6
%%humdrum-veritas 3938324900
%%humdrum-veritas-data 1676991264
%%linebreak <none>
%%barnumbers 0
L: 1/8
M: 2/4
%%staves {1 2}
V: 1 clef=treble
V: 2 clef=bass
K: F
[V:1] [K:clef=treble][M:2/4]G2F2 ||  
[V:2] [K:clef=bass][M:2/4](3!accent!G,, z G,, (3!accent!G,, z G,, ||  
[V:1] [M:3/4]D>DD4 ||  
[V:2] [M:3/4]z6 ||  
[V:1] [M:2/4]G2F2 ||  
[V:2] [M:2/4]z4 ||  
[V:1] [M:3/4]D>DD2-D3/F/ ||  
[V:2] [M:3/4]z6 ||  
[V:1] [M:2/4]F>D D3/D/ | 
[V:2] [M:2/4]z4 | 
[V:1] C>B, B,3/C/ | 
[V:2] z4 | 
[V:1] B,>G,G,2[K:clef=bass] | 
[V:2] z4 | 
[V:1] [K:clef=bass]F,2D,3/F,/ | 
[V:2] z4 | 
[V:1] G,2F,2 | 
[V:2] z4 | 
[V:1] D,F, D,/D,3/ | 
[V:2] z4 | 
[V:1] D,4 |]  
[V:2] z4 |]  


